X: 26094
T: McFadden's Handsome Daughter
R: reel
M: 4/4
K: Amajor
~e3f edcd|ecac bB~B2|ceef ecAF|EFAB cAAc|
~e3f edcd|ecac bB~B2|cefe ~a3f|e2ce aecA||

